X: 1
T: Sleepy Waltz
S: Paul Milde
M: 3/4
L: 1/8
K: G
GE \
| D2 G2 A2 | B3 dBG | A2 G2 c2 | {D}E4 FE | D2 F2 A2 | f2 fg fe | d2 de dc | B2 BA GE |
| D2 G2 A2 | B3 zBG | A2 G2 c2 | {D}E4 (3GFE | D2 F2 A2 | f2 fg fe | d2 dc BA | G4 |]
Bc \
| d2 B2 d2 | g3 bag | f2 e2 c2 {D}E4 FE | D2 F2 A2 | f2 fg fe | d2 de dc | B2 BA GE |
| DE GA ((3Bcd) | g3 (bag) | f2 e2 c2 | {D}E4 FE | D2 F2 A2 | f2 fg fe | d2 dc BA | G4 |]
